4/img/svg/main-logo.svg

<svg width="202" height="60" viewBox="0 0 202 60" fill="none" xmlns="http://www.w3.org/2000/svg">
<g clip-path="url(#clip0_2403_2170)">
<path d="M59.88 24C58.1561 19.8695 55.3798 16.263 51.8279 13.5398C48.2759 10.8166 44.0723 9.07178 39.6359 8.47931C35.1995 7.88684 30.6853 8.46738 26.5432 10.1631C22.4011 11.8588 18.7757 14.6104 16.0283 18.1437C13.281 21.677 11.5076 25.8687 10.8849 30.3009C10.2622 34.7332 10.8119 39.2512 12.4794 43.4048C14.1468 47.5583 16.8736 51.2024 20.3881 53.9738C23.9026 56.7452 28.0821 58.5471 32.51 59.2C31.93 57.11 31.34 54.8 30.82 52.35C32.3328 53.3313 33.925 54.1843 35.58 54.9C35.58 54.9 35.7 57.06 35.86 59.47C37.6482 59.5008 39.4348 59.3433 41.19 59C41.1447 58.7487 41.1447 58.4913 41.19 58.24C41.48 56.37 42.28 53 42.44 50.83C43.5933 49.7513 44.5717 48.4996 45.34 47.12L45.28 47.56C44.73 51.82 43.58 56.37 42.88 57.63C42.6534 58.0471 42.3745 58.4335 42.05 58.78C45.6698 57.9308 49.0616 56.3046 51.9903 54.014C54.9189 51.7234 57.3144 48.8232 59.0106 45.5146C60.7067 42.2059 61.663 38.568 61.8132 34.853C61.9633 31.1379 61.3037 27.4347 59.88 24ZM58.41 27.79C57.97 28.22 57.06 28.51 56.91 27.21C56.76 25.91 56.72 25 56.72 25C56.72 25 54.79 21.57 54.07 21.53C53.35 21.49 48.24 25 46.89 26.53C45.72 27.82 45.49 27.73 45.49 30C45.49 31.71 45.71 38.17 45.59 43.11L37.44 45.28C34.8783 46.0152 32.2733 46.5896 29.64 47L28.64 41.17H28.5L25.93 28C25.93 28 22.12 26.56 20.72 26.17C20.0626 25.8824 19.3367 25.7889 18.6279 25.9005C17.9192 26.0122 17.2571 26.3243 16.72 26.8C16.172 27.2798 15.7338 27.872 15.4353 28.5364C15.1368 29.2008 14.9849 29.9217 14.99 30.65C15.2014 31.1148 15.3623 31.6009 15.47 32.1C15.52 32.58 14.27 32.53 13.47 32.53C12.67 32.53 12.55 31.09 13.18 29.4C13.6715 28.1005 14.2807 26.8486 15 25.66C15.541 24.5982 16.2388 23.624 17.07 22.77C17.07 22.77 17.21 22.43 18.32 22.53C19.43 22.63 25.6 22.96 25.6 22.96L25.65 20.69C32.3564 19.764 39.1201 19.3162 45.89 19.35C45.89 19.96 45.89 20.57 45.89 21.18C48.4543 20.0098 51.2154 19.3314 54.03 19.18C54.1806 19.1762 54.3298 19.2098 54.4642 19.2779C54.5986 19.346 54.714 19.4463 54.8 19.57C55.14 20 57.21 22.57 57.45 22.94C58.1222 23.9007 58.7334 24.9027 59.28 25.94C59.0927 26.5968 58.7987 27.2184 58.41 27.78V27.79Z" fill="#FDC305"/>
<path d="M56.46 21.67C56.93 22.27 57.34 22.8 57.46 22.96C58.1322 23.9207 58.7434 24.9227 59.29 25.96C59.0997 26.5953 58.8094 27.1961 58.43 27.74C57.99 28.17 57.08 28.46 56.93 27.16C56.78 25.86 56.72 25 56.72 25C56.72 25 54.79 21.57 54.07 21.53C53.35 21.49 48.24 25 46.89 26.53C45.72 27.82 45.49 27.73 45.49 30C45.49 31.5 45.66 36.65 45.62 41.23C47.43 41.43 50.09 41.93 50.89 43.11C50.89 43.11 50.6 35.93 58.7 39.69C58.7 39.69 58.98 29.9 70.16 32.41C66.3594 27.9478 61.7004 24.2955 56.46 21.67Z" fill="#F06351"/>
<path d="M45.93 19.35C45.9707 13.8088 45.502 8.27549 44.53 2.82001C44.53 2.82001 44.38 1.52001 43.66 2.58001C43.0659 3.84723 42.6615 5.19501 42.46 6.58001C38.1852 6.30572 33.8943 6.41952 29.64 6.92001C28.82 4.17001 27.42 2.92001 26.75 3.25001C26.08 3.58001 26 6.53001 26 6.53001L25.67 20.69C32.383 19.7631 39.1534 19.3153 45.93 19.35Z" fill="#F06351"/>
<path d="M45.35 47.12C45.48 46.05 45.55 44.63 45.59 43.06L37.44 45.23C34.8794 45.982 32.2744 46.5732 29.64 47L30.75 52C30.75 52.11 30.75 52.22 30.82 52.33C32.3328 53.3113 33.925 54.1643 35.58 54.88C37.9987 53.7238 40.3023 52.341 42.46 50.75V50.81C43.6081 49.7366 44.583 48.4918 45.35 47.12Z" fill="#E55645"/>
<path d="M32 16.22C31.95 16.12 33 16.9 33.41 17.14C33.82 17.38 34.02 17.56 34.02 17.73C34.02 17.9 33.76 18.07 33.4 18.07C33.04 18.07 32.48 17.95 32.4 17.81C32.32 17.67 33 17.81 33.34 17.81H33.63C33.0143 17.3596 32.4656 16.8243 32 16.22Z" fill="black"/>
<path d="M39.5 16.33C39.5 16.33 38.5 17.61 38.41 17.67C38.32 17.73 38.24 18.01 38.6 17.96C39.0133 17.8983 39.4212 17.8047 39.82 17.68C39.93 17.62 39.89 17.48 39.7 17.5C39.51 17.52 39.02 17.55 38.7 17.61L39.55 16.34C39.55 16.34 39.58 16.22 39.5 16.33Z" fill="black"/>
<path d="M36.36 22.44C36.8235 22.2358 37.2067 21.8843 37.45 21.44C37.73 20.78 37.45 20.53 37.01 20.44C36.4047 20.3296 35.7799 20.4509 35.26 20.78C34.87 21.15 34.92 21.51 35.26 21.78C35.5978 22.0449 35.9673 22.2666 36.36 22.44Z" fill="black"/>
<path d="M36 23.7C35.8852 23.9268 35.7292 24.1303 35.54 24.3C35.2552 24.5291 34.9051 24.6622 34.54 24.68C33.9894 24.7341 33.4389 24.5768 33 24.24C32.7984 24.1221 32.619 23.9698 32.47 23.79C32.37 23.6811 32.247 23.5957 32.11 23.54C32.11 23.54 32.86 27.65 34.68 28.31C36.5 28.97 36.84 27.55 36.89 27.17C36.9509 26.0319 36.665 24.9021 36.07 23.93C36.07 23.63 36.05 23.83 36 23.7Z" fill="#F06351"/>
<path d="M34.3 24.84C33.832 24.7727 33.3825 24.6113 32.9786 24.3656C32.5747 24.1198 32.2248 23.7947 31.95 23.41C31.9254 23.3825 31.9118 23.3469 31.9118 23.31C31.9118 23.2731 31.9254 23.2375 31.95 23.21C31.963 23.1967 31.9786 23.1861 31.9958 23.1789C32.0129 23.1717 32.0314 23.168 32.05 23.168C32.0686 23.168 32.0871 23.1717 32.1042 23.1789C32.1214 23.1861 32.137 23.1967 32.15 23.21C32.3975 23.5572 32.7114 23.8517 33.0736 24.0766C33.4358 24.3015 33.8391 24.4522 34.26 24.52C34.593 24.495 34.9153 24.3913 35.2004 24.2174C35.4855 24.0436 35.7253 23.8046 35.9 23.52L36.04 23.33L36.14 23.55C36.14 23.55 36.52 24.31 37.14 24.35C37.76 24.39 38.2 23.93 38.77 23.06C38.7912 23.0282 38.8242 23.0061 38.8617 22.9986C38.8992 22.9911 38.9382 22.9988 38.97 23.02C39.0018 23.0412 39.0239 23.0742 39.0314 23.1117C39.0389 23.1492 39.0312 23.1882 39.01 23.22C38.3433 24.2 37.7133 24.67 37.12 24.63C36.8907 24.5996 36.6711 24.5183 36.4772 24.392C36.2834 24.2656 36.1204 24.0975 36 23.9C35.8043 24.1732 35.5502 24.3994 35.2561 24.562C34.9621 24.7246 34.6354 24.8196 34.3 24.84Z" fill="black"/>
<path d="M36.26 38.3C38.3311 38.3 40.01 36.6211 40.01 34.55C40.01 32.4789 38.3311 30.8 36.26 30.8C34.1889 30.8 32.51 32.4789 32.51 34.55C32.51 36.6211 34.1889 38.3 36.26 38.3Z" fill="#FDC305"/>
<path d="M41.23 31.5L38.1 32.81L39.25 27.18L31.75 36.94L34.88 35.63L33.73 41.27L41.23 31.5ZM33.84 35.33L38 29.92L37.19 33.92L39.19 33.1L35 38.52L35.81 34.52L33.84 35.33Z" fill="#111111"/>
<path d="M32.44 33.86C33.0586 33.86 33.56 33.3586 33.56 32.74C33.56 32.1214 33.0586 31.62 32.44 31.62C31.8214 31.62 31.32 32.1214 31.32 32.74C31.32 33.3586 31.8214 33.86 32.44 33.86Z" fill="#111111"/>
<path d="M38.96 37.92C39.3963 37.92 39.75 37.5663 39.75 37.13C39.75 36.6937 39.3963 36.34 38.96 36.34C38.5237 36.34 38.17 36.6937 38.17 37.13C38.17 37.5663 38.5237 37.92 38.96 37.92Z" fill="#111111"/>
<path d="M39.92 35.75C40.1133 35.75 40.27 35.5933 40.27 35.4C40.27 35.2067 40.1133 35.05 39.92 35.05C39.7267 35.05 39.57 35.2067 39.57 35.4C39.57 35.5933 39.7267 35.75 39.92 35.75Z" fill="#111111"/>
<path d="M45.88 21.16C44.0749 22.7873 42.3748 24.5274 40.79 26.37C39.2114 28.1993 37.43 29.8432 35.48 31.27C35.26 30.74 33.85 29.75 33.85 29.75C33.85 29.75 30.71 27.6 28.65 25.91C27.5364 24.9825 26.4873 23.9802 25.51 22.91L23.51 22.8C26.397 27.0172 30.6266 30.1329 35.51 31.64C36.37 31.5 38.79 29.77 40.6 28.36C42.7414 26.5389 44.7467 24.5636 46.6 22.45C47.0981 21.858 47.4844 21.1803 47.74 20.45C46.6 20.83 45.88 21.16 45.88 21.16Z" fill="#F06351"/>
<path d="M65.22 3.5L56.76 12.94L55.54 10.95L63.69 0L65.22 3.5Z" fill="#FDC305"/>
<path d="M62.65 17.26L68.19 13.15L67.41 9.41L62.01 14.22L62.65 17.26Z" fill="#FDC305"/>
<path d="M59.92 49.37L66.05 52.55L69.06 50.21L62.37 47.46L59.92 49.37Z" fill="#FDC305"/>
<path d="M1.95 5.97L5.02 2.61L14.31 11.61L13.09 13.89L1.95 5.97Z" fill="#FDC305"/>
<path d="M7.38 16.28L2.68 13.15L0.280001 17.02L5.43 19.42L7.38 16.28Z" fill="#FDC305"/>
<path d="M13.91 52.55L9.36 55.9L12.16 59.48L16.18 55.46L13.91 52.55Z" fill="#FDC305"/>
<path d="M25.93 28C25.93 28 22.12 26.56 20.72 26.17C20.0626 25.8824 19.3367 25.7889 18.6279 25.9005C17.9192 26.0122 17.2571 26.3243 16.72 26.8C16.172 27.2798 15.7338 27.8721 15.4353 28.5364C15.1368 29.2008 14.9849 29.9217 14.99 30.65C15.2014 31.1148 15.3623 31.6009 15.47 32.1C15.52 32.58 14.27 32.53 13.47 32.53C12.67 32.53 12.55 31.09 13.18 29.4C13.6715 28.1005 14.2807 26.8486 15 25.66C9.55 28.5 0 35.06 0 35.06C2.73169 34.8953 5.47264 34.9756 8.19 35.3C13.44 35.83 13.19 39.97 13.19 39.97C15.0366 39.4609 16.9184 39.0899 18.82 38.86C20.94 38.72 21.09 40.98 21.09 40.98L21.62 44.84C22.4248 43.9693 23.3123 43.1789 24.27 42.48C25.5045 41.4918 27.0763 41.0253 28.65 41.18L25.93 28Z" fill="#F06351"/>
<path d="M85.66 42C84.6298 40.4735 84.1372 38.6475 84.26 36.81V29.31C84.13 27.459 84.6152 25.6169 85.64 24.07C86.5667 22.8767 88.15 22.2833 90.39 22.29C92.63 22.2967 94.1467 22.82 94.94 23.86C95.9073 25.1488 96.3793 26.7423 96.27 28.35V30.11H92.13V28.2C92.1244 27.6974 92.081 27.196 92 26.7C91.9499 26.3409 91.7851 26.0077 91.53 25.75C91.3725 25.615 91.1897 25.5127 90.9923 25.4492C90.7948 25.3856 90.5867 25.3621 90.38 25.38C90.0832 25.3357 89.78 25.3839 89.5116 25.5181C89.2432 25.6523 89.0226 25.866 88.88 26.13C88.6171 26.8323 88.5013 27.5811 88.54 28.33V37.85C88.4944 38.6038 88.628 39.3578 88.93 40.05C89.0743 40.2997 89.2884 40.5019 89.546 40.6315C89.8036 40.7612 90.0935 40.8128 90.38 40.78C90.6616 40.8198 90.9485 40.7697 91.1999 40.6368C91.4513 40.5039 91.6543 40.2951 91.78 40.04C92.0219 39.3364 92.1271 38.5931 92.09 37.85V35.85H96.23V37.58C96.3519 39.2114 95.9184 40.8361 95 42.19C94.12 43.29 92.6 43.83 90.44 43.83C88.28 43.83 86.59 43.23 85.66 42Z" fill="#111111"/>
<path d="M101.91 22.58H106.65L110.65 43.58H106.71L106 38.94H102.68L101.88 43.55H97.88L101.91 22.58ZM105.56 36.3L104.3 27.86L103.05 36.3H105.56Z" fill="#111111"/>
<path d="M113.72 25.74H110.48V22.58H121.2V25.74H118V43.55H113.71L113.72 25.74Z" fill="#111111"/>
<path d="M129.61 22.58H137.74V24.76H132.54V31.69H136.76V33.76H132.54V41.45H137.79V43.55H129.61V22.58Z" fill="#444444"/>
<path d="M140.15 22.58H142.15L148.15 36.51V22.58H150.59V43.58H148.72L142.72 29.26V43.55H140.24L140.15 22.58Z" fill="#444444"/>
<path d="M153.82 22.58H161.94V24.76H156.74V31.69H161V33.76H156.78V41.45H162V43.55H153.82V22.58Z" fill="#444444"/>
<path d="M164.35 22.58H168.57C170.233 22.4462 171.889 22.9107 173.24 23.89C174.24 24.76 174.73 26.18 174.73 28.15C174.73 30.8167 173.867 32.4467 172.14 33.04L175.14 43.55H172.3L169.55 33.71H167.28V43.55H164.35V22.58ZM168.35 31.58C169.313 31.6732 170.277 31.402 171.05 30.82C171.364 30.4481 171.599 30.0158 171.74 29.5498C171.881 29.0837 171.925 28.5938 171.87 28.11C171.89 27.4316 171.792 26.7548 171.58 26.11C171.494 25.8722 171.361 25.6542 171.189 25.4687C171.018 25.2831 170.81 25.134 170.58 25.03C169.931 24.7637 169.231 24.6441 168.53 24.68H167.24V31.62L168.35 31.58Z" fill="#444444"/>
<path d="M178.67 42C177.714 40.3866 177.271 38.5208 177.4 36.65V29.65C177.366 28.2992 177.534 26.9508 177.9 25.65C178.189 24.6721 178.803 23.8219 179.64 23.24C180.651 22.6307 181.821 22.3382 183 22.4C183.762 22.3275 184.532 22.4224 185.254 22.678C185.976 22.9336 186.633 23.3439 187.18 23.88C188.139 25.224 188.593 26.864 188.46 28.51V29.29H185.71V28.64C185.729 27.8626 185.668 27.0852 185.53 26.32C185.439 25.8296 185.168 25.3909 184.77 25.09C184.251 24.7836 183.652 24.6408 183.05 24.68C182.397 24.6241 181.748 24.825 181.24 25.24C180.825 25.6335 180.554 26.1545 180.47 26.72C180.343 27.5437 180.286 28.3767 180.3 29.21V37C180.221 38.1837 180.423 39.3695 180.89 40.46C181.161 40.7954 181.506 41.0643 181.897 41.2461C182.288 41.428 182.716 41.5181 183.147 41.5094C183.578 41.5007 184.002 41.3935 184.385 41.196C184.769 40.9986 185.102 40.716 185.36 40.37C185.842 39.2166 186.051 37.9674 185.97 36.72V35.24H183.31V33.17H188.61V43.55H186.8L186.51 41.14C186.281 41.9407 185.787 42.6403 185.11 43.125C184.433 43.6098 183.612 43.8512 182.78 43.81C181.998 43.879 181.211 43.7492 180.493 43.4328C179.774 43.1163 179.147 42.6235 178.67 42Z" fill="#444444"/>
<path d="M194.69 36.15L190.16 22.58H192.88L196.09 32.7L199.25 22.58H202L197.5 36.15V43.55H194.7L194.69 36.15Z" fill="#444444"/>
</g>
<defs>
<clipPath id="clip0_2403_2170">
<rect width="201.99" height="59.48" fill="white"/>
</clipPath>
</defs>
</svg>

<svg width="202" height="60" fill="none" xmlns="http://www.w3.org/2000/svg"><g clip-path="url(#a)"><path d="M59.88 24a25.61 25.61 0 1 0-27.37 35.2c-.58-2.09-1.17-4.4-1.69-6.85a32.32 32.32 0 0 0 4.76 2.55s.12 2.16.28 4.57c1.788.03 3.575-.127 5.33-.47a2.142 2.142 0 0 1 0-.76c.29-1.87 1.09-5.24 1.25-7.41a15.218 15.218 0 0 0 2.9-3.71l-.06.44c-.55 4.26-1.7 8.81-2.4 10.07a5.577 5.577 0 0 1-.83 1.15A25.64 25.64 0 0 0 59.88 24Zm-1.47 3.79c-.44.43-1.35.72-1.5-.58-.15-1.3-.19-2.21-.19-2.21s-1.93-3.43-2.65-3.47c-.72-.04-5.83 3.47-7.18 5-1.17 1.29-1.4 1.2-1.4 3.47 0 1.71.22 8.17.1 13.11l-8.15 2.17a64.002 64.002 0 0 1-7.8 1.72l-1-5.83h-.14L25.93 28s-3.81-1.44-5.21-1.83a3.76 3.76 0 0 0-4 .63 5.069 5.069 0 0 0-1.73 3.85c.211.465.372.95.48 1.45.05.48-1.2.43-2 .43s-.92-1.44-.29-3.13c.492-1.3 1.1-2.551 1.82-3.74a11.869 11.869 0 0 1 2.07-2.89s.14-.34 1.25-.24c1.11.1 7.28.43 7.28.43l.05-2.27a142.764 142.764 0 0 1 20.24-1.34v1.83a22.52 22.52 0 0 1 8.14-2 .91.91 0 0 1 .77.39c.34.43 2.41 3 2.65 3.37.672.96 1.283 1.963 1.83 3a6.24 6.24 0 0 1-.87 1.84v.01Z" fill="#FDC305"/><path d="M56.46 21.67c.47.6.88 1.13 1 1.29.672.96 1.283 1.963 1.83 3a6.242 6.242 0 0 1-.86 1.78c-.44.43-1.35.72-1.5-.58-.15-1.3-.21-2.16-.21-2.16s-1.93-3.43-2.65-3.47c-.72-.04-5.83 3.47-7.18 5-1.17 1.29-1.4 1.2-1.4 3.47 0 1.5.17 6.65.13 11.23 1.81.2 4.47.7 5.27 1.88 0 0-.29-7.18 7.81-3.42 0 0 .28-9.79 11.46-7.28a43.72 43.72 0 0 0-13.7-10.74ZM45.93 19.35a90.45 90.45 0 0 0-1.4-16.53s-.15-1.3-.87-.24a14.26 14.26 0 0 0-1.2 4 70.88 70.88 0 0 0-12.82.34c-.82-2.75-2.22-4-2.89-3.67-.67.33-.75 3.28-.75 3.28l-.33 14.16a142.778 142.778 0 0 1 20.26-1.34Z" fill="#F06351"/><path d="M45.35 47.12c.13-1.07.2-2.49.24-4.06l-8.15 2.17a64.01 64.01 0 0 1-7.8 1.77l1.11 5c0 .11 0 .22.07.33a32.32 32.32 0 0 0 4.76 2.55 42.42 42.42 0 0 0 6.88-4.13v.06a15.22 15.22 0 0 0 2.89-3.69Z" fill="#E55645"/><path d="M32 16.22c-.05-.1 1 .68 1.41.92.41.24.61.42.61.59 0 .17-.26.34-.62.34s-.92-.12-1-.26c-.08-.14.6 0 .94 0h.29A8.08 8.08 0 0 1 32 16.22ZM39.5 16.33s-1 1.28-1.09 1.34c-.09.06-.17.34.19.29a8.09 8.09 0 0 0 1.22-.28c.11-.06.07-.2-.12-.18-.19.02-.68.05-1 .11l.85-1.27s.03-.12-.05-.01ZM36.36 22.44a2.3 2.3 0 0 0 1.09-1c.28-.66 0-.91-.44-1a2.45 2.45 0 0 0-1.75.34c-.39.37-.34.73 0 1a5.16 5.16 0 0 0 1.1.66Z" fill="#000"/><path d="M36 23.7a2.05 2.05 0 0 1-.46.6 1.73 1.73 0 0 1-1 .38 2.18 2.18 0 0 1-1.54-.44 1.999 1.999 0 0 1-.53-.45 1 1 0 0 0-.36-.25s.75 4.11 2.57 4.77c1.82.66 2.16-.76 2.21-1.14a5.63 5.63 0 0 0-.82-3.24c0-.3-.02-.1-.07-.23Z" fill="#F06351"/><path d="M34.3 24.84a3.502 3.502 0 0 1-2.35-1.43.15.15 0 0 1 0-.2.14.14 0 0 1 .2 0 3.22 3.22 0 0 0 2.11 1.31 2.11 2.11 0 0 0 1.64-1l.14-.19.1.22s.38.76 1 .8c.62.04 1.06-.42 1.63-1.29a.144.144 0 0 1 .24.16c-.667.98-1.297 1.45-1.89 1.41A1.551 1.551 0 0 1 36 23.9a2.26 2.26 0 0 1-1.7.94Z" fill="#000"/><path d="M36.26 38.3a3.75 3.75 0 1 0 0-7.5 3.75 3.75 0 0 0 0 7.5Z" fill="#FDC305"/><path d="m41.23 31.5-3.13 1.31 1.15-5.63-7.5 9.76 3.13-1.31-1.15 5.64 7.5-9.77Zm-7.39 3.83L38 29.92l-.81 4 2-.82L35 38.52l.81-4-1.97.81ZM32.44 33.86a1.12 1.12 0 1 0 0-2.24 1.12 1.12 0 0 0 0 2.24ZM38.96 37.92a.79.79 0 1 0 0-1.58.79.79 0 0 0 0 1.58ZM39.92 35.75a.35.35 0 1 0 0-.7.35.35 0 0 0 0 .7Z" fill="#111"/><path d="M45.88 21.16a57.467 57.467 0 0 0-5.09 5.21 31.877 31.877 0 0 1-5.31 4.9c-.22-.53-1.63-1.52-1.63-1.52s-3.14-2.15-5.2-3.84a31.894 31.894 0 0 1-3.14-3l-2-.11a22.63 22.63 0 0 0 12 8.84c.86-.14 3.28-1.87 5.09-3.28a57.664 57.664 0 0 0 6-5.91 6.38 6.38 0 0 0 1.14-2c-1.14.38-1.86.71-1.86.71Z" fill="#F06351"/><path d="m65.22 3.5-8.46 9.44-1.22-1.99L63.69 0l1.53 3.5ZM62.65 17.26l5.54-4.11-.78-3.74-5.4 4.81.64 3.04ZM59.92 49.37l6.13 3.18 3.01-2.34-6.69-2.75-2.45 1.91ZM1.95 5.97l3.07-3.36 9.29 9-1.22 2.28L1.95 5.97ZM7.38 16.28l-4.7-3.13-2.4 3.87 5.15 2.4 1.95-3.14ZM13.91 52.55 9.36 55.9l2.8 3.58 4.02-4.02-2.27-2.91Z" fill="#FDC305"/><path d="M25.93 28s-3.81-1.44-5.21-1.83a3.76 3.76 0 0 0-4 .63 5.07 5.07 0 0 0-1.73 3.85c.211.465.372.95.48 1.45.05.48-1.2.43-2 .43s-.92-1.44-.29-3.13c.492-1.3 1.1-2.551 1.82-3.74-5.45 2.84-15 9.4-15 9.4a45.825 45.825 0 0 1 8.19.24c5.25.53 5 4.67 5 4.67 1.847-.51 3.728-.88 5.63-1.11 2.12-.14 2.27 2.12 2.27 2.12l.53 3.86a18.294 18.294 0 0 1 2.65-2.36 6.06 6.06 0 0 1 4.38-1.3L25.93 28Z" fill="#F06351"/><path d="M85.66 42a8.29 8.29 0 0 1-1.4-5.19v-7.5a8.42 8.42 0 0 1 1.38-5.24c.927-1.193 2.51-1.787 4.75-1.78 2.24.007 3.757.53 4.55 1.57a6.72 6.72 0 0 1 1.33 4.49v1.76h-4.14V28.2a9.998 9.998 0 0 0-.13-1.5 1.68 1.68 0 0 0-.47-.95 1.56 1.56 0 0 0-1.15-.37 1.46 1.46 0 0 0-1.5.75 5.47 5.47 0 0 0-.34 2.2v9.52a4.78 4.78 0 0 0 .39 2.2 1.48 1.48 0 0 0 1.45.73 1.35 1.35 0 0 0 1.4-.74 5.84 5.84 0 0 0 .31-2.19v-2h4.14v1.73A7.25 7.25 0 0 1 95 42.19c-.88 1.1-2.4 1.64-4.56 1.64-2.16 0-3.85-.6-4.78-1.83ZM101.91 22.58h4.74l4 21h-3.94l-.71-4.64h-3.32l-.8 4.61h-4l4.03-20.97Zm3.65 13.72-1.26-8.44-1.25 8.44h2.51ZM113.72 25.74h-3.24v-3.16h10.72v3.16H118v17.81h-4.29l.01-17.81Z" fill="#111"/><path d="M129.61 22.58h8.13v2.18h-5.2v6.93h4.22v2.07h-4.22v7.69h5.25v2.1h-8.18V22.58ZM140.15 22.58h2l6 13.93V22.58h2.44v21h-1.87l-6-14.32v14.29h-2.48l-.09-20.97ZM153.82 22.58h8.12v2.18h-5.2v6.93H161v2.07h-4.22v7.69H162v2.1h-8.18V22.58ZM164.35 22.58h4.22a7 7 0 0 1 4.67 1.31c1 .87 1.49 2.29 1.49 4.26 0 2.667-.863 4.297-2.59 4.89l3 10.51h-2.84l-2.75-9.84h-2.27v9.84h-2.93V22.58Zm4 9a3.87 3.87 0 0 0 2.7-.76 3.574 3.574 0 0 0 .82-2.71 5.851 5.851 0 0 0-.29-2 1.887 1.887 0 0 0-1-1.08 4.759 4.759 0 0 0-2.05-.35h-1.29v6.94l1.11-.04ZM178.67 42a9.247 9.247 0 0 1-1.27-5.35v-7c-.034-1.35.134-2.7.5-4a4.483 4.483 0 0 1 1.74-2.41 5.91 5.91 0 0 1 3.36-.84 5.264 5.264 0 0 1 4.18 1.48 7.001 7.001 0 0 1 1.28 4.63v.78h-2.75v-.65a11.491 11.491 0 0 0-.18-2.32 2 2 0 0 0-.76-1.23 2.999 2.999 0 0 0-1.72-.41 2.52 2.52 0 0 0-1.81.56 2.557 2.557 0 0 0-.77 1.48 14.718 14.718 0 0 0-.17 2.49V37a7.518 7.518 0 0 0 .59 3.46 2.827 2.827 0 0 0 3.495.736 2.83 2.83 0 0 0 .975-.826 8.104 8.104 0 0 0 .61-3.65v-1.48h-2.66v-2.07h5.3v10.38h-1.81l-.29-2.41a3.69 3.69 0 0 1-3.73 2.67 4.657 4.657 0 0 1-4.11-1.81ZM194.69 36.15l-4.53-13.57h2.72l3.21 10.12 3.16-10.12H202l-4.5 13.57v7.4h-2.8l-.01-7.4Z" fill="#444"/></g><defs><clipPath id="a"><path fill="#fff" d="M0 0h201.99v59.48H0z"/></clipPath></defs></svg>
